X: 161
T: Mullowny's Jigg
B: 204 Favourite Country Dances
N: Published by Straight & Skillern, London ca.1775
F: http://imslp.org/wiki/204_Favourite_Country_Dances_(Various) p.81 #161
Z: 2014 John Chambers <jc:trillian.mit.edu>
M: 6/8
L: 1/8
K: D
% - - - - - - - - - - - - - - - - - - - - - - - - -
A/G/ |\
FGA AFA | AFA AFA | BGB AGF | BGE E2G |\
FGA AFA | AFA d2A | dcB AFd | AFD D2 :|
|: c/d/ |\
ecA AcA | cBA dAF | BGB AGF | BGE Ecd |\
ecA AcA | cBA dAF | dcB AFd | AFD D2 :|
% - - - - - - - - - - - - - - - - - - - - - - - - -
%%begintext align
%% 1st Man Hands round with the 1st & 2d Wo. .|
%% 1st Wo. the same with the 1st & 2d Man .|. 1st Cu.
%% cross over two Cu. lead up to the top and cast
%% off .|| lead thro' the Bottom Cu. cast up & Right
%% and Left .||.
%%endtext

%%sep 1 1 500
%%sep 1 1 500
